X:26
T:Plyarteation,The. WCl.26
M:6/8
L:1/8
Q:3/8=60
S:William Clarke MS,Lincoln,1770.
R:.Air
O:Lincoln
A:England
N:Name of tune is clearly written in MS…
Z:vmp.Barry Callaghan
K:G
D2|”_as writ”GAG FED|ABA AAB/2c/2|dBG GdB|B2 A2:|!
|:B/2c/2|dcB dcB|gfe dcB|AFD AFD|” tr”c3B2 B/2c/2|dBG GdB|” tr”A2 G2:|

